xNet/artwork/ic_storage_extern_primary.svg

<?xml version="1.0" encoding="UTF-8" standalone="no"?><!-- Generator: Adobe Illustrator 14.0.0, SVG Export Plug-In . SVG Version: 6.00 Build 43363)  -->

<svg xmlns:dc="http://purl.org/dc/elements/1.1/" xmlns:cc="http://creativecommons.org/ns#" xmlns:rdf="http://www.w3.org/1999/02/22-rdf-syntax-ns#" xmlns="http://www.w3.org/2000/svg" xmlns:sodipodi="http://sodipodi.sourceforge.net/DTD/sodipodi-0.dtd"
	xmlns:inkscape="http://www.inkscape.org/namespaces/inkscape" version="1.1" x="0px" y="0px" width="64" height="64" viewBox="0 0 64 64" enable-background="new 0 0 780 650" xml:space="preserve" id="svg4433" inkscape:version="0.91 r13725" sodipodi:docname="ic_storage_extern-primary.svg"><metadata
     id="metadata5887"><rdf:RDF><cc:Work
         rdf:about=""><dc:format>image/svg+xml</dc:format><dc:type rdf:resource="http://purl.org/dc/dcmitype/StillImage" /></cc:Work></rdf:RDF></metadata>
	<defs id="defs5885"><style
       id="style2988"
       type="text/css">
    .fil0 {fill:#006C3B}
    .fil1 {fill:#77C06C}
   </style>
		<clipPath id="clipPath46"><path
         id="path48"
         inkscape:connector-curvature="0"
         d="M 0,32 32,32 32,0 0,0 0,32 z" /></clipPath>
		<clipPath id="clipPath980"><path
         id="path982"
         inkscape:connector-curvature="0"
         d="m 5.38916,28.1929 21.80814,0 0,-24.32864 -21.80814,0 0,24.32864 z" /></clipPath></defs>
	<sodipodi:namedview pagecolor="#ffffff" bordercolor="#666666" borderopacity="1" objecttolerance="10" gridtolerance="10" guidetolerance="10" inkscape:pageopacity="0" inkscape:pageshadow="2" inkscape:window-width="1071" inkscape:window-height="789"
		id="namedview5883" showgrid="false" inkscape:zoom="2.3334006" inkscape:cx="28.472391" inkscape:cy="99.918792" inkscape:window-x="108" inkscape:window-y="170" inkscape:window-maximized="0" inkscape:current-layer="svg4433" />
	<path style="fill:#c0c0c0;fill-opacity:1;fill-rule:nonzero;stroke:none" id="path172" inkscape:connector-curvature="0"
		d="m 48.768419,18.734084 -2.629675,0 0,-10.5411638 2.629675,0 0,10.5411638 z m -5.264945,0 -2.638108,0 0,-13.1764615 2.638108,0 0,13.1764615 z m -5.270566,0 -2.640921,0 0,-10.5411638 2.640921,0 0,10.5411638 z m -10.541162,0 -2.638081,0 0,-10.5411638 2.638081,0 0,10.5411638 z m -5.267756,0 -2.63527,0 0,-10.5411638 2.63527,0 0,10.5411638 z m 7.905865,-13.1764615 2.635297,0 0,13.1764615 -2.635297,0 0,-13.1764615 z m 18.187703,-2.6352695 -28.478005,0 c -1.603711,0 -2.897405,1.293665 -2.897405,2.8889417 l 0,16.8658383 -5.259292,5.253641 0,4.396858 c 0,1.192219 1.431804,0.910374 1.431804,0.910374 1.366967,0 1.606523,1.144307 1.606523,1.595276 l 0,1.727707 c 0,1.231695 -0.369204,1.536091 -0.986457,2.026507 l -1.975785,1.66855 0,18.114403 c 0,1.395167 1.133061,2.528171 2.531012,2.528171 l 34.388374,0 c 1.39514,0 2.530984,-1.133004 2.530984,-2.528171 l 0,-52.5506915 c 0,-1.6037395 -1.293665,-2.8974045 -2.891753,-2.8974045" />
	<text xml:space="preserve"
		style="font-style:normal;font-variant:normal;font-weight:normal;font-stretch:normal;font-size:39.10264587px;line-height:100%;font-family:'DejaVu Sans';-inkscape-font-specification:'DejaVu Sans, Normal';text-align:start;letter-spacing:0px;word-spacing:0px;writing-mode:lr-tb;text-anchor:start;fill:#000000;fill-opacity:1;stroke:none;stroke-width:1px;stroke-linecap:butt;stroke-linejoin:miter;stroke-opacity:1"
		x="21.501902" y="54.68224" id="text17113" sodipodi:linespacing="100%"><tspan
       sodipodi:role="line"
       id="tspan17115"
       x="21.501902"
       y="54.68224">1</tspan></text>
</svg>

<svg xmlns="http://www.w3.org/2000/svg" xml:space="preserve" width="64" height="64"><path d="M48.768 18.734h-2.63V8.193h2.63v10.541zm-5.265 0h-2.638V5.558h2.638v13.176zm-5.27 0h-2.641V8.193h2.64v10.541zm-10.541 0h-2.638V8.193h2.638v10.541zm-5.268 0h-2.635V8.193h2.635v10.541zM30.33 5.558h2.635v13.176H30.33V5.558zm18.188-2.636H20.04a2.891 2.891 0 0 0-2.898 2.89v16.865l-5.26 5.254v4.397c0 1.192 1.433.91 1.433.91 1.367 0 1.606 1.144 1.606 1.595v1.728c0 1.232-.369 1.536-.986 2.026l-1.976 1.669V58.37A2.53 2.53 0 0 0 14.49 60.9h34.388a2.532 2.532 0 0 0 2.531-2.529V5.82a2.892 2.892 0 0 0-2.891-2.898" style="fill:silver;fill-opacity:1;fill-rule:nonzero;stroke:none"/><text xml:space="preserve" x="21.502" y="54.682" style="font-style:normal;font-variant:normal;font-weight:400;font-stretch:normal;font-size:39.10264587px;line-height:100%;font-family:&quot;DejaVu Sans&quot;;-inkscape-font-specification:&quot;DejaVu Sans, Normal&quot;;text-align:start;letter-spacing:0;word-spacing:0;writing-mode:lr-tb;text-anchor:start;fill:#000;fill-opacity:1;stroke:none;stroke-width:1px;stroke-linecap:butt;stroke-linejoin:miter;stroke-opacity:1"><tspan x="21.502" y="54.682">1</tspan></text></svg>
